X:1
T:Title
%%score 1 { ( 2 4 ) | ( 3 5 ) }
L:1/8
Q:1/4=106
M:4/4
K:Ab
V:1 treble nm="Grand Piano"
V:2 treble nm="Grand Piano"
V:4 treble 
V:3 bass 
V:5 bass 
V:1
 E2 A2 G2 FF | E2 A2 c4 | B2 G2 F2 EE | A2 B2 c4 | c2 c2 f2 ee | d2 c2 B2 F2 | B2 B2 c2 B2 | %7
w: Haldor~Lillenas * * * *|||||||
 e6 z2 | z8 | z8 | z8 | z8 | z8 | z8 | z8 | z8 |] %16
w: |||||||||
V:2
 [EAc]2 [EAc]2 [EGBd]2 [EGBd]2 | [EAc]2 [EAc]2 [EAc]4 | [EGBd]2 [EGBd]2 [EGBd]2 [EGBd]2 | %3
 c2 d2 e4 | c2 c2 c2 e2 | f2 f2 [df]2 [Bd]2 | B2 B2 c2 B2 | e2 [GBdf]2 [_GAce]2 z2 | %8
 [CEA]2 [CEA]2 [DEG]4 | d2 d2 z4 | B2 B2 B2 AA | z4 E4 | [CEA]2 [CEA]2 [DEG]4 | d2 z2 z4 | %14
 [Af]2 [Af]2 [Ae]2 [DEG]2 | [CEA]6 z2 |] %16
V:3
 E,2 A,2 G,2 F,2 | E,2 A,2 C4 | B,2 G,2 F,2 E,2 | [A,EA]2 [B,DG]2 [CEA]4 | %4
 [CEA]2 [C=EGB]2 [FA]2 [_EAc]2 | [DBd]2 [C=Ac]2 [B,B]2 [F,F]2 | %6
 [B,=DFA]2 [B,DF]2 [CDFA]2 [B,DFA]2 | [EGBd]2 [B,D]2 [CE]2 z2 | A,,2 A,,2 B,,2 E,2 | %9
 .[E,B,E]2 [E,E]2[K:treble] [A,EA]4 | [B,EG]2 [B,EG]2 [B,=DF]2 [CEF][CEF] | [B,E]2 B,,2 z2 D2 | %12
 A,,2 A,,2 B,,2 E,2 | .[E,B,E]2 z[K:treble] B A,4 | [D,D]2 [D,D]2 [E,C]2 E,2 | A,,6 z2 |] %16
V:4
 x8 | x8 | x8 | x8 | x8 | x8 | x8 | x8 | x8 | z FGB c4 | x8 | G2 [A,=DF]2 G,2 z2 | x8 | %13
 z F .[EGd]2 [EAc]4 | x8 | x8 |] %16
V:5
 x8 | x8 | x8 | x8 | x8 | x8 | x8 | x8 | x8 | x4[K:treble] x4 | x8 | z4 E,4 | x8 | %13
 z2 E,2[K:treble] z4 | x8 | x8 |] %16

